X:1
T:Title
%%score [ ( 1 2 ) ( 3 4 ) ]
L:1/8
Q:1/4=120
M:4/4
K:Gb
V:1 treble nm="Midi_74"
V:2 treble 
V:3 treble nm="Midi_74"
V:4 treble 
V:1
 d8 | e4 d4 | B8 || A8 | d4 B4 | A4"^Edward Elgar\n(1857-1934)" G4 | B8 |] %7
V:2
 G8 | G4 A4 | G8 || E8 | D4 F4 | F4 E4 | D8 |] %7
V:3
 B,8 | B,4 D4 | D8 || C8 | A,4 B,4 | C4 B,4 | B,8 |] %7
V:4
 G,8 | E,4 F,4 | G,8 || G,8 | F,4 D,4 | E,4 E,4 | G,8 |] %7

